X:72
T:Gigue de M. Blanchette
C:M. Blanchette
S:Carmen GuÈrard
R:reel
M:4/4
L:1/8
K:D
Addd cdeg | fdfa gfed | Addd cdeg | fdec d4 |
Addd cdeg | fdfa gfed | Addd cdeg | fdec d4 ||
faaa gbag | fdfa gfed | faaa gbag | fdec d4 |
faaa gbag | fdfa gfed | faaa gbag | fdec d4 ||
aafa ggeg | ffdf ecBA | aafa ggeg | fdec d2Ad |
aafa ggeg | ffdf ecBA | aafa ggeg | fdec d4 |]
